X: 161
T:Slow March. JaW.161
M:C
L:1/8
Q:120
C:"May 2nd 1841, James Winder"
S:James Winder Ms, Lancashire, 1835-41
R:March
O:England
A:Wyresdale,Lancashire
H:1/8
Z:vmp.Chris Partington, Aug 2004
K:C
c2|g2g>g g>fe>d|c2c>c c2c'>b|a>bc'>a g2f>e|e2d>d d2f>e|!
f2f>f f2g2|a>bc'>c' c'2g>f|edcg a>gf>e|d2d>d d2:|!
|:d2|d2d>d d>ef>d|e2c>c c2c'b|a2a>a a>bc'>a|b2g>g g2f>e|!
f>gaa efgg|a>bc'c' c'2g>f|((3efg) ((3agf) e2d2|c2c>c c2:|]
